X:11
T:New York the New Way. ThoH.011
Q:1/2=90
M:3/2
L:1/8
B:Thompson's Compleat Collection of 120 Favourite Hornpipes.
Z:Village Music Project, Simon Wilson 2016
O:England.
K:Bb
E(GFE) D(FED)C3B|ABcdc2C2(DEF)D|EGFE D(EFD)B,3B|F(BAc)B2B,2D(EFD):|
|:E2G2_AGFE D(EFD)|C(cBd)c2C2D(EFD)|E2G2_AGFE D(EFD)|B,BAcB2B,2D(EFD):|
|:B2d2e(dcB) (ABc)A|G(cBd)c2C2D(EFD)|E2d2(edcB) (ABcA)|FBAcB2B,2D(EFD):|
|:BGEG FDB,DC3B|(AB)(cd)c2C2DEFD|BGEG FDB,D"^sic"C3e|d2B2B3B, DEFD:|

